NotoEmoji/emoji_u1f9f1.svg

<svg enable-background="new 0 0 128 128" viewBox="0 0 128 128" xmlns="http://www.w3.org/2000/svg"><path d="m119.56 124h-111.11c-2.45 0-4.44-1.99-4.44-4.44v-111.12c0-2.45 1.99-4.44 4.44-4.44h111.11c2.45 0 4.44 1.99 4.44 4.44v111.12c0 2.45-1.99 4.44-4.44 4.44z" fill="#e0e0e0"/><g fill="#751c00"><path d="m39.65 17.91h-33.74c-1.05 0-1.9-.85-1.9-1.9v-8.73c0-1.05.85-1.9 1.9-1.9h33.74c1.05 0 1.9.85 1.9 1.9v8.72c0 1.05-.85 1.91-1.9 1.91z"/><path d="m80.87 17.91h-33.73c-1.05 0-1.9-.85-1.9-1.9v-8.73c0-1.05.85-1.9 1.9-1.9h33.74c1.05 0 1.9.85 1.9 1.9v8.72c-.01 1.05-.86 1.91-1.91 1.91z"/><path d="m122.1 17.91h-33.74c-1.05 0-1.9-.85-1.9-1.9v-8.73c0-1.05.85-1.9 1.9-1.9h33.74c1.05 0 1.9.85 1.9 1.9v8.72c0 1.05-.85 1.91-1.9 1.91z"/><path d="m39.65 53.27h-33.74c-1.05 0-1.9-.85-1.9-1.9v-8.72c0-1.05.85-1.9 1.9-1.9h33.74c1.05 0 1.9.85 1.9 1.9v8.72c0 1.05-.85 1.9-1.9 1.9z"/><path d="m80.87 53.27h-33.73c-1.05 0-1.9-.85-1.9-1.9v-8.72c0-1.05.85-1.9 1.9-1.9h33.74c1.05 0 1.9.85 1.9 1.9v8.72c-.01 1.05-.86 1.9-1.91 1.9z"/><path d="m122.1 53.27h-33.74c-1.05 0-1.9-.85-1.9-1.9v-8.72c0-1.05.85-1.9 1.9-1.9h33.74c1.05 0 1.9.85 1.9 1.9v8.72c0 1.05-.85 1.9-1.9 1.9z"/><path d="m39.65 88.64h-33.74c-1.05 0-1.9-.85-1.9-1.9v-8.72c0-1.05.85-1.9 1.9-1.9h33.74c1.05 0 1.9.85 1.9 1.9v8.72c0 1.04-.85 1.9-1.9 1.9z"/><path d="m80.87 88.64h-33.73c-1.05 0-1.9-.85-1.9-1.9v-8.72c0-1.05.85-1.9 1.9-1.9h33.74c1.05 0 1.9.85 1.9 1.9v8.72c-.01 1.04-.86 1.9-1.91 1.9z"/><path d="m122.1 88.64h-33.74c-1.05 0-1.9-.85-1.9-1.9v-8.72c0-1.05.85-1.9 1.9-1.9h33.74c1.05 0 1.9.85 1.9 1.9v8.72c0 1.04-.85 1.9-1.9 1.9z"/><path d="m39.65 124h-33.74c-1.05 0-1.9-.85-1.9-1.9v-8.72c0-1.05.85-1.9 1.9-1.9h33.74c1.05 0 1.9.85 1.9 1.9v8.72c0 1.05-.85 1.9-1.9 1.9z"/><path d="m80.87 124h-33.73c-1.05 0-1.9-.85-1.9-1.9v-8.72c0-1.05.85-1.9 1.9-1.9h33.74c1.05 0 1.9.85 1.9 1.9v8.72c-.01 1.05-.86 1.9-1.91 1.9z"/><path d="m122.1 124h-33.74c-1.05 0-1.9-.85-1.9-1.9v-8.72c0-1.05.85-1.9 1.9-1.9h33.74c1.05 0 1.9.85 1.9 1.9v8.72c0 1.05-.85 1.9-1.9 1.9z"/><path d="m19.52 23.06h-15.52v12.53h15.52c1.05 0 1.9-.85 1.9-1.9v-8.72c0-1.06-.85-1.91-1.9-1.91z"/><path d="m60.42 35.59h-33.73c-1.05 0-1.9-.85-1.9-1.9v-8.72c0-1.05.85-1.9 1.9-1.9h33.74c1.05 0 1.9.85 1.9 1.9v8.72c-.01 1.05-.86 1.9-1.91 1.9z"/><path d="m101.32 35.59h-33.73c-1.05 0-1.9-.85-1.9-1.9v-8.72c0-1.05.85-1.9 1.9-1.9h33.74c1.05 0 1.9.85 1.9 1.9v8.72c-.01 1.05-.86 1.9-1.91 1.9z"/><path d="m108.49 23.06c-1.05 0-1.9.85-1.9 1.9v8.72c0 1.05.85 1.9 1.9 1.9h15.51v-12.52z"/><path d="m19.52 58.43h-15.52v12.53h15.52c1.05 0 1.9-.85 1.9-1.9v-8.72c0-1.06-.85-1.91-1.9-1.91z"/><path d="m60.42 70.95h-33.73c-1.05 0-1.9-.85-1.9-1.9v-8.72c0-1.05.85-1.9 1.9-1.9h33.74c1.05 0 1.9.85 1.9 1.9v8.72c-.01 1.05-.86 1.9-1.91 1.9z"/><path d="m101.32 70.95h-33.73c-1.05 0-1.9-.85-1.9-1.9v-8.72c0-1.05.85-1.9 1.9-1.9h33.74c1.05 0 1.9.85 1.9 1.9v8.72c-.01 1.05-.86 1.9-1.91 1.9z"/><path d="m108.49 58.43c-1.05 0-1.9.85-1.9 1.9v8.72c0 1.05.85 1.9 1.9 1.9h15.51v-12.52z"/><path d="m19.52 93.79h-15.52v12.53h15.52c1.05 0 1.9-.85 1.9-1.9v-8.72c0-1.06-.85-1.91-1.9-1.91z"/><path d="m60.42 106.32h-33.73c-1.05 0-1.9-.85-1.9-1.9v-8.72c0-1.05.85-1.9 1.9-1.9h33.74c1.05 0 1.9.85 1.9 1.9v8.72c-.01 1.05-.86 1.9-1.91 1.9z"/><path d="m101.32 106.32h-33.73c-1.05 0-1.9-.85-1.9-1.9v-8.72c0-1.05.85-1.9 1.9-1.9h33.74c1.05 0 1.9.85 1.9 1.9v8.72c-.01 1.05-.86 1.9-1.91 1.9z"/><path d="m108.49 93.79c-1.05 0-1.9.85-1.9 1.9v8.72c0 1.05.85 1.9 1.9 1.9h15.51v-12.52z"/></g><path d="m39.65 16.53h-33.74c-1.05 0-1.9-.85-1.9-1.9v-8.73c0-1.05.85-1.9 1.9-1.9h33.74c1.05 0 1.9.85 1.9 1.9v8.72c0 1.05-.85 1.91-1.9 1.91z" fill="#e04e2c"/><path d="m80.87 16.53h-33.73c-1.05 0-1.9-.85-1.9-1.9v-8.73c0-1.05.85-1.9 1.9-1.9h33.74c1.05 0 1.9.85 1.9 1.9v8.72c-.01 1.05-.86 1.91-1.91 1.91z" fill="#bf360c"/><path d="m122.1 16.53h-33.74c-1.05 0-1.9-.85-1.9-1.9v-8.73c0-1.05.85-1.9 1.9-1.9h33.74c1.05 0 1.9.85 1.9 1.9v8.72c0 1.05-.85 1.91-1.9 1.91z" fill="#e04e2c"/><path d="m39.65 51.89h-33.74c-1.05 0-1.9-.85-1.9-1.9v-8.72c0-1.05.85-1.9 1.9-1.9h33.74c1.05 0 1.9.85 1.9 1.9v8.72c0 1.05-.85 1.9-1.9 1.9z" fill="#e04e2c"/><path d="m80.87 51.89h-33.73c-1.05 0-1.9-.85-1.9-1.9v-8.72c0-1.05.85-1.9 1.9-1.9h33.74c1.05 0 1.9.85 1.9 1.9v8.72c-.01 1.05-.86 1.9-1.91 1.9z" fill="#e04e2c"/><path d="m122.1 51.89h-33.74c-1.05 0-1.9-.85-1.9-1.9v-8.72c0-1.05.85-1.9 1.9-1.9h33.74c1.05 0 1.9.85 1.9 1.9v8.72c0 1.05-.85 1.9-1.9 1.9z" fill="#bf360c"/><path d="m39.65 87.26h-33.74c-1.05 0-1.9-.85-1.9-1.9v-8.72c0-1.05.85-1.9 1.9-1.9h33.74c1.05 0 1.9.85 1.9 1.9v8.72c0 1.04-.85 1.9-1.9 1.9z" fill="#e04e2c"/><path d="m80.87 87.26h-33.73c-1.05 0-1.9-.85-1.9-1.9v-8.72c0-1.05.85-1.9 1.9-1.9h33.74c1.05 0 1.9.85 1.9 1.9v8.72c-.01 1.04-.86 1.9-1.91 1.9z" fill="#bf360c"/><path d="m122.1 87.26h-33.74c-1.05 0-1.9-.85-1.9-1.9v-8.72c0-1.05.85-1.9 1.9-1.9h33.74c1.05 0 1.9.85 1.9 1.9v8.72c0 1.04-.85 1.9-1.9 1.9z" fill="#e04e2c"/><path d="m39.65 122.62h-33.74c-1.05 0-1.9-.85-1.9-1.9v-8.72c0-1.05.85-1.9 1.9-1.9h33.74c1.05 0 1.9.85 1.9 1.9v8.72c0 1.05-.85 1.9-1.9 1.9z" fill="#e04e2c"/><path d="m80.87 122.62h-33.73c-1.05 0-1.9-.85-1.9-1.9v-8.72c0-1.05.85-1.9 1.9-1.9h33.74c1.05 0 1.9.85 1.9 1.9v8.72c-.01 1.05-.86 1.9-1.91 1.9z" fill="#e04e2c"/><path d="m122.1 122.62h-33.74c-1.05 0-1.9-.85-1.9-1.9v-8.72c0-1.05.85-1.9 1.9-1.9h33.74c1.05 0 1.9.85 1.9 1.9v8.72c0 1.05-.85 1.9-1.9 1.9z" fill="#bf360c"/><path d="m19.52 21.68h-15.52v12.53h15.52c1.05 0 1.9-.85 1.9-1.9v-8.72c0-1.06-.85-1.91-1.9-1.91z" fill="#bf360c"/><path d="m60.42 34.21h-33.73c-1.05 0-1.9-.85-1.9-1.9v-8.72c0-1.05.85-1.9 1.9-1.9h33.74c1.05 0 1.9.85 1.9 1.9v8.72c-.01 1.05-.86 1.9-1.91 1.9z" fill="#e04e2c"/><path d="m101.32 34.21h-33.73c-1.05 0-1.9-.85-1.9-1.9v-8.72c0-1.05.85-1.9 1.9-1.9h33.74c1.05 0 1.9.85 1.9 1.9v8.72c-.01 1.05-.86 1.9-1.91 1.9z" fill="#ff7043"/><path d="m108.49 21.68c-1.05 0-1.9.85-1.9 1.9v8.72c0 1.05.85 1.9 1.9 1.9h15.51v-12.52z" fill="#e04e2c"/><path d="m19.52 57.05h-15.52v12.53h15.52c1.05 0 1.9-.85 1.9-1.9v-8.72c0-1.06-.85-1.91-1.9-1.91z" fill="#e04e2c"/><path d="m60.42 69.57h-33.73c-1.05 0-1.9-.85-1.9-1.9v-8.72c0-1.05.85-1.9 1.9-1.9h33.74c1.05 0 1.9.85 1.9 1.9v8.72c-.01 1.05-.86 1.9-1.91 1.9z" fill="#ff7043"/><path d="m101.32 69.57h-33.73c-1.05 0-1.9-.85-1.9-1.9v-8.72c0-1.05.85-1.9 1.9-1.9h33.74c1.05 0 1.9.85 1.9 1.9v8.72c-.01 1.05-.86 1.9-1.91 1.9z" fill="#e04e2c"/><path d="m108.49 57.05c-1.05 0-1.9.85-1.9 1.9v8.72c0 1.05.85 1.9 1.9 1.9h15.51v-12.52z" fill="#e04e2c"/><path d="m19.52 92.41h-15.52v12.53h15.52c1.05 0 1.9-.85 1.9-1.9v-8.72c0-1.06-.85-1.91-1.9-1.91z" fill="#bf360c"/><path d="m60.42 104.94h-33.73c-1.05 0-1.9-.85-1.9-1.9v-8.72c0-1.05.85-1.9 1.9-1.9h33.74c1.05 0 1.9.85 1.9 1.9v8.72c-.01 1.05-.86 1.9-1.91 1.9z" fill="#e04e2c"/><path d="m101.32 104.94h-33.73c-1.05 0-1.9-.85-1.9-1.9v-8.72c0-1.05.85-1.9 1.9-1.9h33.74c1.05 0 1.9.85 1.9 1.9v8.72c-.01 1.05-.86 1.9-1.91 1.9z" fill="#e04e2c"/><path d="m108.49 92.41c-1.05 0-1.9.85-1.9 1.9v8.72c0 1.05.85 1.9 1.9 1.9h15.51v-12.52z" fill="#ff7043"/></svg>

<?xml version="1.0" encoding="utf-8"?>
<!-- Generator: Adobe Illustrator 25.2.3, SVG Export Plug-In . SVG Version: 6.00 Build 0)  -->
<svg version="1.1" id="Layer_3" xmlns="http://www.w3.org/2000/svg" xmlns:xlink="http://www.w3.org/1999/xlink" x="0px" y="0px"
	 viewBox="0 0 128 128" style="enable-background:new 0 0 128 128;" xml:space="preserve">
<g>
	<path style="fill:#E0E0E0;" d="M119.56,124H8.45c-2.45,0-4.44-1.99-4.44-4.44V8.44C4.01,5.99,6,4,8.45,4h111.11
		c2.45,0,4.44,1.99,4.44,4.44v111.12C124,122.01,122.01,124,119.56,124z"/>
	<g>
		<g>
			<g>
				<path style="fill:#751C00;" d="M39.65,17.91H5.91c-1.05,0-1.9-0.85-1.9-1.9V7.28c0-1.05,0.85-1.9,1.9-1.9h33.74
					c1.05,0,1.9,0.85,1.9,1.9V16C41.55,17.05,40.7,17.91,39.65,17.91z"/>
				<path style="fill:#751C00;" d="M80.87,17.91H47.14c-1.05,0-1.9-0.85-1.9-1.9V7.28c0-1.05,0.85-1.9,1.9-1.9h33.74
					c1.05,0,1.9,0.85,1.9,1.9V16C82.77,17.05,81.92,17.91,80.87,17.91z"/>
				<path style="fill:#751C00;" d="M122.1,17.91H88.36c-1.05,0-1.9-0.85-1.9-1.9V7.28c0-1.05,0.85-1.9,1.9-1.9h33.74
					c1.05,0,1.9,0.85,1.9,1.9V16C124,17.05,123.15,17.91,122.1,17.91z"/>
			</g>
		</g>
		<g>
			<g>
				<path style="fill:#751C00;" d="M39.65,53.27H5.91c-1.05,0-1.9-0.85-1.9-1.9v-8.72c0-1.05,0.85-1.9,1.9-1.9h33.74
					c1.05,0,1.9,0.85,1.9,1.9v8.72C41.55,52.42,40.7,53.27,39.65,53.27z"/>
				<path style="fill:#751C00;" d="M80.87,53.27H47.14c-1.05,0-1.9-0.85-1.9-1.9v-8.72c0-1.05,0.85-1.9,1.9-1.9h33.74
					c1.05,0,1.9,0.85,1.9,1.9v8.72C82.77,52.42,81.92,53.27,80.87,53.27z"/>
				<path style="fill:#751C00;" d="M122.1,53.27H88.36c-1.05,0-1.9-0.85-1.9-1.9v-8.72c0-1.05,0.85-1.9,1.9-1.9h33.74
					c1.05,0,1.9,0.85,1.9,1.9v8.72C124,52.42,123.15,53.27,122.1,53.27z"/>
			</g>
		</g>
		<g>
			<g>
				<path style="fill:#751C00;" d="M39.65,88.64H5.91c-1.05,0-1.9-0.85-1.9-1.9v-8.72c0-1.05,0.85-1.9,1.9-1.9h33.74
					c1.05,0,1.9,0.85,1.9,1.9v8.72C41.55,87.78,40.7,88.64,39.65,88.64z"/>
				<path style="fill:#751C00;" d="M80.87,88.64H47.14c-1.05,0-1.9-0.85-1.9-1.9v-8.72c0-1.05,0.85-1.9,1.9-1.9h33.74
					c1.05,0,1.9,0.85,1.9,1.9v8.72C82.77,87.78,81.92,88.64,80.87,88.64z"/>
				<path style="fill:#751C00;" d="M122.1,88.64H88.36c-1.05,0-1.9-0.85-1.9-1.9v-8.72c0-1.05,0.85-1.9,1.9-1.9h33.74
					c1.05,0,1.9,0.85,1.9,1.9v8.72C124,87.78,123.15,88.64,122.1,88.64z"/>
			</g>
		</g>
		<g>
			<g>
				<path style="fill:#751C00;" d="M39.65,124H5.91c-1.05,0-1.9-0.85-1.9-1.9v-8.72c0-1.05,0.85-1.9,1.9-1.9h33.74
					c1.05,0,1.9,0.85,1.9,1.9v8.72C41.55,123.15,40.7,124,39.65,124z"/>
				<path style="fill:#751C00;" d="M80.87,124H47.14c-1.05,0-1.9-0.85-1.9-1.9v-8.72c0-1.05,0.85-1.9,1.9-1.9h33.74
					c1.05,0,1.9,0.85,1.9,1.9v8.72C82.77,123.15,81.92,124,80.87,124z"/>
				<path style="fill:#751C00;" d="M122.1,124H88.36c-1.05,0-1.9-0.85-1.9-1.9v-8.72c0-1.05,0.85-1.9,1.9-1.9h33.74
					c1.05,0,1.9,0.85,1.9,1.9v8.72C124,123.15,123.15,124,122.1,124z"/>
			</g>
		</g>
		<g>
			<g>
				<path style="fill:#751C00;" d="M19.52,23.06H4v12.53h15.52c1.05,0,1.9-0.85,1.9-1.9v-8.72C21.42,23.91,20.57,23.06,19.52,23.06z
					"/>
				<path style="fill:#751C00;" d="M60.42,35.59H26.69c-1.05,0-1.9-0.85-1.9-1.9v-8.72c0-1.05,0.85-1.9,1.9-1.9h33.74
					c1.05,0,1.9,0.85,1.9,1.9v8.72C62.32,34.74,61.47,35.59,60.42,35.59z"/>
				<path style="fill:#751C00;" d="M101.32,35.59H67.59c-1.05,0-1.9-0.85-1.9-1.9v-8.72c0-1.05,0.85-1.9,1.9-1.9h33.74
					c1.05,0,1.9,0.85,1.9,1.9v8.72C103.22,34.74,102.37,35.59,101.32,35.59z"/>
				<path style="fill:#751C00;" d="M108.49,23.06c-1.05,0-1.9,0.85-1.9,1.9v8.72c0,1.05,0.85,1.9,1.9,1.9H124V23.06H108.49z"/>
			</g>
		</g>
		<g>
			<g>
				<path style="fill:#751C00;" d="M19.52,58.43H4v12.53h15.52c1.05,0,1.9-0.85,1.9-1.9v-8.72C21.42,59.28,20.57,58.43,19.52,58.43z
					"/>
				<path style="fill:#751C00;" d="M60.42,70.95H26.69c-1.05,0-1.9-0.85-1.9-1.9v-8.72c0-1.05,0.85-1.9,1.9-1.9h33.74
					c1.05,0,1.9,0.85,1.9,1.9v8.72C62.32,70.1,61.47,70.95,60.42,70.95z"/>
				<path style="fill:#751C00;" d="M101.32,70.95H67.59c-1.05,0-1.9-0.85-1.9-1.9v-8.72c0-1.05,0.85-1.9,1.9-1.9h33.74
					c1.05,0,1.9,0.85,1.9,1.9v8.72C103.22,70.1,102.37,70.95,101.32,70.95z"/>
				<path style="fill:#751C00;" d="M108.49,58.43c-1.05,0-1.9,0.85-1.9,1.9v8.72c0,1.05,0.85,1.9,1.9,1.9H124V58.43H108.49z"/>
			</g>
		</g>
		<g>
			<g>
				<path style="fill:#751C00;" d="M19.52,93.79H4v12.53h15.52c1.05,0,1.9-0.85,1.9-1.9v-8.72C21.42,94.64,20.57,93.79,19.52,93.79z
					"/>
				<path style="fill:#751C00;" d="M60.42,106.32H26.69c-1.05,0-1.9-0.85-1.9-1.9v-8.72c0-1.05,0.85-1.9,1.9-1.9h33.74
					c1.05,0,1.9,0.85,1.9,1.9v8.72C62.32,105.47,61.47,106.32,60.42,106.32z"/>
				<path style="fill:#751C00;" d="M101.32,106.32H67.59c-1.05,0-1.9-0.85-1.9-1.9v-8.72c0-1.05,0.85-1.9,1.9-1.9h33.74
					c1.05,0,1.9,0.85,1.9,1.9v8.72C103.22,105.47,102.37,106.32,101.32,106.32z"/>
				<path style="fill:#751C00;" d="M108.49,93.79c-1.05,0-1.9,0.85-1.9,1.9v8.72c0,1.05,0.85,1.9,1.9,1.9H124V93.79H108.49z"/>
			</g>
		</g>
	</g>
	<g>
		<g>
			<g>
				<path style="fill:#E04E2C;" d="M39.65,16.53H5.91c-1.05,0-1.9-0.85-1.9-1.9V5.9c0-1.05,0.85-1.9,1.9-1.9h33.74
					c1.05,0,1.9,0.85,1.9,1.9v8.72C41.55,15.67,40.7,16.53,39.65,16.53z"/>
				<path style="fill:#BF360C;" d="M80.87,16.53H47.14c-1.05,0-1.9-0.85-1.9-1.9V5.9c0-1.05,0.85-1.9,1.9-1.9h33.74
					c1.05,0,1.9,0.85,1.9,1.9v8.72C82.77,15.67,81.92,16.53,80.87,16.53z"/>
				<path style="fill:#E04E2C;" d="M122.1,16.53H88.36c-1.05,0-1.9-0.85-1.9-1.9V5.9c0-1.05,0.85-1.9,1.9-1.9h33.74
					c1.05,0,1.9,0.85,1.9,1.9v8.72C124,15.67,123.15,16.53,122.1,16.53z"/>
			</g>
		</g>
		<g>
			<g>
				<path style="fill:#E04E2C;" d="M39.65,51.89H5.91c-1.05,0-1.9-0.85-1.9-1.9v-8.72c0-1.05,0.85-1.9,1.9-1.9h33.74
					c1.05,0,1.9,0.85,1.9,1.9v8.72C41.55,51.04,40.7,51.89,39.65,51.89z"/>
				<path style="fill:#E04E2C;" d="M80.87,51.89H47.14c-1.05,0-1.9-0.85-1.9-1.9v-8.72c0-1.05,0.85-1.9,1.9-1.9h33.74
					c1.05,0,1.9,0.85,1.9,1.9v8.72C82.77,51.04,81.92,51.89,80.87,51.89z"/>
				<path style="fill:#BF360C;" d="M122.1,51.89H88.36c-1.05,0-1.9-0.85-1.9-1.9v-8.72c0-1.05,0.85-1.9,1.9-1.9h33.74
					c1.05,0,1.9,0.85,1.9,1.9v8.72C124,51.04,123.15,51.89,122.1,51.89z"/>
			</g>
		</g>
		<g>
			<g>
				<path style="fill:#E04E2C;" d="M39.65,87.26H5.91c-1.05,0-1.9-0.85-1.9-1.9v-8.72c0-1.05,0.85-1.9,1.9-1.9h33.74
					c1.05,0,1.9,0.85,1.9,1.9v8.72C41.55,86.4,40.7,87.26,39.65,87.26z"/>
				<path style="fill:#BF360C;" d="M80.87,87.26H47.14c-1.05,0-1.9-0.85-1.9-1.9v-8.72c0-1.05,0.85-1.9,1.9-1.9h33.74
					c1.05,0,1.9,0.85,1.9,1.9v8.72C82.77,86.4,81.92,87.26,80.87,87.26z"/>
				<path style="fill:#E04E2C;" d="M122.1,87.26H88.36c-1.05,0-1.9-0.85-1.9-1.9v-8.72c0-1.05,0.85-1.9,1.9-1.9h33.74
					c1.05,0,1.9,0.85,1.9,1.9v8.72C124,86.4,123.15,87.26,122.1,87.26z"/>
			</g>
		</g>
		<g>
			<g>
				<path style="fill:#E04E2C;" d="M39.65,122.62H5.91c-1.05,0-1.9-0.85-1.9-1.9V112c0-1.05,0.85-1.9,1.9-1.9h33.74
					c1.05,0,1.9,0.85,1.9,1.9v8.72C41.55,121.77,40.7,122.62,39.65,122.62z"/>
				<path style="fill:#E04E2C;" d="M80.87,122.62H47.14c-1.05,0-1.9-0.85-1.9-1.9V112c0-1.05,0.85-1.9,1.9-1.9h33.74
					c1.05,0,1.9,0.85,1.9,1.9v8.72C82.77,121.77,81.92,122.62,80.87,122.62z"/>
				<path style="fill:#BF360C;" d="M122.1,122.62H88.36c-1.05,0-1.9-0.85-1.9-1.9V112c0-1.05,0.85-1.9,1.9-1.9h33.74
					c1.05,0,1.9,0.85,1.9,1.9v8.72C124,121.77,123.15,122.62,122.1,122.62z"/>
			</g>
		</g>
		<g>
			<g>
				<path style="fill:#BF360C;" d="M19.52,21.68H4v12.53h15.52c1.05,0,1.9-0.85,1.9-1.9v-8.72C21.42,22.53,20.57,21.68,19.52,21.68z
					"/>
				<path style="fill:#E04E2C;" d="M60.42,34.21H26.69c-1.05,0-1.9-0.85-1.9-1.9v-8.72c0-1.05,0.85-1.9,1.9-1.9h33.74
					c1.05,0,1.9,0.85,1.9,1.9v8.72C62.32,33.36,61.47,34.21,60.42,34.21z"/>
				<path style="fill:#FF7043;" d="M101.32,34.21H67.59c-1.05,0-1.9-0.85-1.9-1.9v-8.72c0-1.05,0.85-1.9,1.9-1.9h33.74
					c1.05,0,1.9,0.85,1.9,1.9v8.72C103.22,33.36,102.37,34.21,101.32,34.21z"/>
				<path style="fill:#E04E2C;" d="M108.49,21.68c-1.05,0-1.9,0.85-1.9,1.9v8.72c0,1.05,0.85,1.9,1.9,1.9H124V21.68H108.49z"/>
			</g>
		</g>
		<g>
			<g>
				<path style="fill:#E04E2C;" d="M19.52,57.05H4v12.53h15.52c1.05,0,1.9-0.85,1.9-1.9v-8.72C21.42,57.9,20.57,57.05,19.52,57.05z"
					/>
				<path style="fill:#FF7043;" d="M60.42,69.57H26.69c-1.05,0-1.9-0.85-1.9-1.9v-8.72c0-1.05,0.85-1.9,1.9-1.9h33.74
					c1.05,0,1.9,0.85,1.9,1.9v8.72C62.32,68.72,61.47,69.57,60.42,69.57z"/>
				<path style="fill:#E04E2C;" d="M101.32,69.57H67.59c-1.05,0-1.9-0.85-1.9-1.9v-8.72c0-1.05,0.85-1.9,1.9-1.9h33.74
					c1.05,0,1.9,0.85,1.9,1.9v8.72C103.22,68.72,102.37,69.57,101.32,69.57z"/>
				<path style="fill:#E04E2C;" d="M108.49,57.05c-1.05,0-1.9,0.85-1.9,1.9v8.72c0,1.05,0.85,1.9,1.9,1.9H124V57.05H108.49z"/>
			</g>
		</g>
		<g>
			<g>
				<path style="fill:#BF360C;" d="M19.52,92.41H4v12.53h15.52c1.05,0,1.9-0.85,1.9-1.9v-8.72C21.42,93.26,20.57,92.41,19.52,92.41z
					"/>
				<path style="fill:#E04E2C;" d="M60.42,104.94H26.69c-1.05,0-1.9-0.85-1.9-1.9v-8.72c0-1.05,0.85-1.9,1.9-1.9h33.74
					c1.05,0,1.9,0.85,1.9,1.9v8.72C62.32,104.09,61.47,104.94,60.42,104.94z"/>
				<path style="fill:#E04E2C;" d="M101.32,104.94H67.59c-1.05,0-1.9-0.85-1.9-1.9v-8.72c0-1.05,0.85-1.9,1.9-1.9h33.74
					c1.05,0,1.9,0.85,1.9,1.9v8.72C103.22,104.09,102.37,104.94,101.32,104.94z"/>
				<path style="fill:#FF7043;" d="M108.49,92.41c-1.05,0-1.9,0.85-1.9,1.9v8.72c0,1.05,0.85,1.9,1.9,1.9H124V92.41H108.49z"/>
			</g>
		</g>
	</g>
</g>
</svg>
